;FLAVOR:Marlin
;TIME:1197
;Filament used: 0.785359m
;Layer height: 0.2
;MINX:79.547
;MINY:96.502
;MINZ:0.2
;MAXX:155.368
;MAXY:142.6
;MAXZ:5
;Generated with Cura_SteamEngine 4.7.1
M140 S50
M105
M190 S50
M104 S200
M105
M109 S200
M82 ;absolute extrusion mode
; Ender 3 Custom Start G-code
G92 E0 ; Reset Extruder
G28 ; Home all axes
G1 Z2.0 F3000 ; Move Z Axis up little to prevent scratching of Heat Bed
G1 X0.1 Y20 Z0.3 F5000.0 ; Move to start position
G1 X0.1 Y200.0 Z0.3 F1500.0 E15 ; Draw the first line
G1 X0.4 Y200.0 Z0.3 F5000.0 ; Move to side a little
G1 X0.4 Y20 Z0.3 F1500.0 E30 ; Draw the second line
G92 E0 ; Reset Extruder
G1 Z2.0 F3000 ; Move Z Axis up little to prevent scratching of Heat Bed
G1 X5 Y20 Z0.3 F5000.0 ; Move over to prevent blob squish
G92 E0
G92 E0
G1 F2700 E-5
;LAYER_COUNT:25
;LAYER:0
M107
G0 F6000 X87.577 Y102.059 Z0.2
;TYPE:SKIRT
G1 F2700 E0
G1 F1200 X88.237 Y101.505 E0.02866
G1 X88.339 Y101.426 E0.03295
G1 X88.627 Y101.211 E0.0449
G1 X88.996 Y100.944 E0.06005
G1 X89.431 Y100.638 E0.07774
G1 X90.108 Y100.174 E0.10504
G1 X90.88 Y99.691 E0.13533
G1 X91.003 Y99.621 E0.14004
G1 X91.285 Y99.466 E0.15074
G1 X91.744 Y99.223 E0.16801
G1 X92.222 Y98.975 E0.18592
G1 X92.853 Y98.659 E0.2094
G1 X93.648 Y98.3 E0.23841
G1 X93.764 Y98.253 E0.24257
G1 X94.093 Y98.126 E0.2543
G1 X94.633 Y97.928 E0.27343
G1 X95.162 Y97.741 E0.29209
G1 X95.803 Y97.524 E0.3146
G1 X96.755 Y97.249 E0.34756
G1 X97.093 Y97.17 E0.3591
G1 X97.675 Y97.043 E0.37892
G1 X98.806 Y96.818 E0.41727
G1 X100.044 Y96.644 E0.45885
G1 X100.759 Y96.585 E0.48271
G1 X101.086 Y96.562 E0.49362
G1 X101.985 Y96.512 E0.52356
G1 X102.983 Y96.502 E0.55676
G1 X103.31 Y96.516 E0.56764
G1 X103.78 Y96.542 E0.5833
G1 X104.304 Y96.578 E0.60077
G1 X105.144 Y96.647 E0.6288
G1 X106.09 Y96.767 E0.66052
G1 X106.236 Y96.792 E0.66545
G1 X106.504 Y96.841 E0.67451
G1 X106.975 Y96.934 E0.69048
G1 X107.97 Y97.139 E0.72426
G1 X108.075 Y97.156 E0.7278
G1 X109.316 Y97.418 E0.76999
G1 X111.804 Y97.867 E0.85408
G1 X114.293 Y98.246 E0.93781
G1 X116.77 Y98.551 E1.02082
G1 X119.276 Y98.788 E1.10454
G1 X121.793 Y98.954 E1.18844
G1 X124.885 Y99.063 E1.29135
G1 X137.84 Y99.297 E1.7223
G1 X140.227 Y99.305 E1.80169
G1 X140.613 Y99.311 E1.81453
G1 X141.351 Y99.348 E1.83911
G1 X141.623 Y99.371 E1.84819
G1 X142.12 Y99.425 E1.86482
G1 X142.549 Y99.481 E1.87921
G1 X143.856 Y99.732 E1.92347
G1 X144.055 Y99.783 E1.9303
G1 X144.485 Y99.903 E1.94515
G1 X144.915 Y100.032 E1.96008
G1 X146.155 Y100.487 E2.00402
G1 X146.352 Y100.573 E2.01116
G1 X146.793 Y100.777 E2.02733
G1 X147.201 Y100.977 E2.04244
G1 X148.416 Y101.672 E2.08899
G1 X148.654 Y101.829 E2.09848
G1 X149.023 Y102.083 E2.11338
G1 X149.337 Y102.309 E2.12624
G1 X150.405 Y103.185 E2.17219
G1 X150.578 Y103.346 E2.18005
G1 X150.875 Y103.632 E2.19376
G1 X151.184 Y103.942 E2.20832
G1 X151.817 Y104.634 E2.23951
G1 X152.134 Y105.031 E2.25641
G1 X152.299 Y105.247 E2.26545
G1 X152.517 Y105.541 E2.27762
G1 X152.74 Y105.854 E2.2904
G1 X153.447 Y106.987 E2.33482
G1 X153.554 Y107.184 E2.34228
G1 X153.775 Y107.612 E2.3583
G1 X153.973 Y108.018 E2.37332
G1 X154.353 Y108.891 E2.40499
G1 X154.373 Y108.943 E2.40685
G1 X154.581 Y109.535 E2.42772
G1 X154.656 Y109.769 E2.43589
G1 X154.733 Y110.019 E2.44459
G1 X154.839 Y110.379 E2.45707
G1 X155.065 Y111.289 E2.48826
G1 X155.161 Y111.828 E2.50647
G1 X155.22 Y112.215 E2.51949
G1 X155.271 Y112.594 E2.53221
G1 X155.293 Y112.782 E2.5385
G1 X155.368 Y114.133 E2.5835
G1 X155.364 Y114.745 E2.60386
G1 X155.355 Y115.126 E2.61654
G1 X155.284 Y116.062 E2.64776
G1 X155.19 Y116.695 E2.66904
G1 X155.098 Y117.211 E2.68647
G1 X155.021 Y117.603 E2.69976
G1 X154.978 Y117.802 E2.70653
G1 X154.611 Y119.104 E2.75153
G1 X154.537 Y119.316 E2.75899
G1 X154.391 Y119.712 E2.77303
G1 X154.23 Y120.122 E2.78768
G1 X153.678 Y121.313 E2.83134
G1 X153.572 Y121.51 E2.83878
G1 X153.315 Y121.961 E2.85605
G1 X153.094 Y122.329 E2.87033
G1 X152.615 Y123.06 E2.89939
G1 X152.58 Y123.109 E2.9014
G1 X152.245 Y123.554 E2.91992
G1 X152.118 Y123.714 E2.92672
G1 X151.863 Y124.023 E2.94004
G1 X151.586 Y124.347 E2.95422
G1 X150.63 Y125.334 E2.99992
G1 X150.474 Y125.476 E3.00694
G1 X150.169 Y125.743 E3.02042
G1 X149.827 Y126.032 E3.03531
G1 X148.719 Y126.855 E3.08122
G1 X148.505 Y126.994 E3.08971
G1 X148.118 Y127.234 E3.10485
G1 X147.76 Y127.446 E3.11869
G1 X146.933 Y127.889 E3.14989
G1 X146.488 Y128.092 E3.16616
G1 X146.229 Y128.203 E3.17553
G1 X145.865 Y128.351 E3.1886
G1 X145.498 Y128.493 E3.20169
G1 X144.612 Y128.793 E3.2328
G1 X143.433 Y129.137 E3.27365
G1 X141.838 Y129.585 E3.32875
G1 X129.574 Y133.263 E3.75461
G1 X127.128 Y134.034 E3.83991
G1 X124.727 Y134.867 E3.92443
G1 X122.384 Y135.755 E4.00777
G1 X120.034 Y136.721 E4.09228
G1 X117.76 Y137.733 E4.17506
G1 X115.478 Y138.827 E4.25923
G1 X113.883 Y139.647 E4.31888
G1 X113.784 Y139.693 E4.32251
G1 X113.115 Y140.039 E4.34757
G1 X112.286 Y140.453 E4.37839
G1 X111.555 Y140.785 E4.40509
G1 X111.46 Y140.824 E4.4085
G1 X111.074 Y140.974 E4.42228
G1 X110.232 Y141.281 E4.45209
G1 X110.018 Y141.356 E4.45963
G1 X109.374 Y141.574 E4.48224
G1 X108.537 Y141.821 E4.51127
G1 X108.426 Y141.849 E4.51508
G1 X108.099 Y141.926 E4.52625
G1 X107.499 Y142.058 E4.54668
G1 X107.224 Y142.109 E4.55598
G1 X107.225 Y142.113 E4.55612
G1 X106.361 Y142.284 E4.58542
G1 X105.129 Y142.456 E4.62679
G1 X104.389 Y142.517 E4.65149
G1 X104.022 Y142.542 E4.66372
G1 X103.183 Y142.588 E4.69167
G1 X102.239 Y142.6 E4.72307
G1 X102.11 Y142.596 E4.72736
G1 X101.83 Y142.583 E4.73668
G1 X101.237 Y142.549 E4.75644
G1 X100.748 Y142.514 E4.77274
G1 X100.012 Y142.452 E4.79731
G1 X99.14 Y142.344 E4.82654
G1 X99.013 Y142.323 E4.83082
G1 X98.705 Y142.267 E4.84123
G1 X98.063 Y142.141 E4.86299
G1 X97.799 Y142.084 E4.87197
G1 X96.866 Y141.874 E4.90378
G1 X95.983 Y141.636 E4.9342
G1 X95.843 Y141.592 E4.93908
G1 X95.55 Y141.496 E4.94933
G1 X95.189 Y141.37 E4.96205
G1 X94.621 Y141.168 E4.9821
G1 X93.956 Y140.921 E5.0057
G1 X93.054 Y140.539 E5.03828
G1 X92.719 Y140.377 E5.05065
G1 X92.184 Y140.107 E5.07058
G1 X91.768 Y139.89 E5.08619
G1 X91.13 Y139.549 E5.11025
G1 X90.292 Y139.053 E5.14264
G1 X89.989 Y138.851 E5.15475
G1 X89.596 Y138.58 E5.17063
G1 X89.069 Y138.206 E5.19212
G1 X88.537 Y137.82 E5.21398
G1 X87.895 Y137.317 E5.24111
G1 X87.785 Y137.224 E5.2459
G1 X87.464 Y136.942 E5.26011
G1 X87.041 Y136.555 E5.27918
G1 X86.818 Y136.348 E5.2893
G1 X86.157 Y135.715 E5.31974
G1 X85.502 Y135.03 E5.35126
G1 X85.417 Y134.933 E5.35555
G1 X85.248 Y134.735 E5.36421
G1 X84.868 Y134.278 E5.38398
G1 X84.533 Y133.864 E5.40169
G1 X84.11 Y133.329 E5.42438
G1 X83.586 Y132.609 E5.45399
G1 X83.498 Y132.477 E5.45927
G1 X83.317 Y132.195 E5.47042
G1 X83.037 Y131.744 E5.48807
G1 X82.763 Y131.293 E5.50562
G1 X82.395 Y130.667 E5.52978
G1 X81.983 Y129.898 E5.55879
G1 X81.932 Y129.793 E5.56267
G1 X81.793 Y129.494 E5.57364
G1 X81.546 Y128.943 E5.59372
G1 X81.332 Y128.444 E5.61178
G1 X81.068 Y127.812 E5.63456
G1 X80.663 Y126.67 E5.67486
G1 X80.486 Y126.067 E5.69577
G1 X80.368 Y125.645 E5.71034
G1 X80.152 Y124.834 E5.73826
G1 X79.952 Y123.935 E5.76889
G1 X79.891 Y123.567 E5.78129
G1 X79.776 Y122.794 E5.80729
G1 X79.725 Y122.41 E5.82017
G1 X79.639 Y121.709 E5.84366
G1 X79.564 Y120.774 E5.87486
G1 X79.559 Y120.638 E5.87939
G1 X79.553 Y120.368 E5.88837
G1 X79.547 Y119.823 E5.9065
G1 X79.548 Y119.276 E5.92469
G1 X79.558 Y118.578 E5.94791
G1 X79.602 Y117.74 E5.97582
G1 X79.612 Y117.63 E5.97949
G1 X79.652 Y117.262 E5.9918
G1 X79.731 Y116.637 E6.01276
G1 X79.811 Y116.064 E6.032
G1 X79.904 Y115.452 E6.05259
G1 X80.08 Y114.551 E6.08312
G1 X80.117 Y114.396 E6.08842
G1 X80.194 Y114.09 E6.09892
G1 X80.337 Y113.563 E6.11708
G1 X80.438 Y113.204 E6.12948
G1 X80.679 Y112.386 E6.15785
G1 X81.002 Y111.449 E6.19081
G1 X81.055 Y111.315 E6.1956
G1 X81.15 Y111.083 E6.20394
G1 X81.343 Y110.627 E6.22041
G1 X81.588 Y110.065 E6.2408
G1 X81.858 Y109.468 E6.26259
G1 X82.297 Y108.603 E6.29486
G1 X82.466 Y108.308 E6.30617
G1 X82.782 Y107.776 E6.32675
G1 X83.06 Y107.321 E6.34448
G1 X83.399 Y106.78 E6.36571
G1 X83.892 Y106.059 E6.39477
G1 X83.976 Y105.946 E6.39945
G1 X84.184 Y105.675 E6.41081
G1 X84.603 Y105.148 E6.4332
G1 X84.866 Y104.826 E6.44703
G1 X85.344 Y104.255 E6.4718
G1 X86.001 Y103.538 E6.50414
G1 X86.238 Y103.304 E6.51522
G1 X86.668 Y102.893 E6.53501
G1 X87.054 Y102.534 E6.55254
G1 X87.577 Y102.059 E6.57604
G0 F6000 X87.846 Y102.355
G1 F1200 X88.482 Y101.822 E6.60364
G1 X88.584 Y101.743 E6.60793
G1 X88.861 Y101.535 E6.61945
G1 X89.23 Y101.268 E6.6346
G1 X89.754 Y100.901 E6.65588
G1 X90.334 Y100.504 E6.67925
G1 X91.078 Y100.038 E6.70845
G1 X91.201 Y99.968 E6.71316
G1 X91.473 Y99.819 E6.72347
G1 X91.928 Y99.578 E6.7406
G1 X92.402 Y99.333 E6.75835
G1 X93.033 Y99.017 E6.78182
G1 X93.798 Y98.671 E6.80974
G1 X93.914 Y98.624 E6.81391
G1 X94.232 Y98.501 E6.82525
G1 X94.768 Y98.304 E6.84424
G1 X95.133 Y98.174 E6.85713
G1 X95.931 Y97.903 E6.88516
G1 X96.849 Y97.637 E6.91695
G1 X96.957 Y97.611 E6.92064
G1 X97.178 Y97.561 E6.92818
G1 X97.76 Y97.434 E6.94799
G1 X98.884 Y97.21 E6.98611
G1 X100.077 Y97.043 E7.02618
G1 X100.95 Y96.972 E7.05531
G1 X101.244 Y96.953 E7.06511
G1 X102.007 Y96.911 E7.09052
G1 X102.968 Y96.902 E7.12249
G1 X103.287 Y96.915 E7.13311
G1 X103.757 Y96.941 E7.14876
G1 X104.401 Y96.986 E7.17023
G1 X105.111 Y97.045 E7.19393
G1 X106.022 Y97.161 E7.22447
G1 X106.168 Y97.186 E7.2294
G1 X106.426 Y97.234 E7.23813
G1 X106.894 Y97.326 E7.25399
G1 X107.832 Y97.519 E7.28584
G1 X107.993 Y97.548 E7.29129
G1 X109.235 Y97.81 E7.3335
G1 X111.709 Y98.257 E7.41712
G1 X114.256 Y98.644 E7.50281
G1 X116.72 Y98.948 E7.58538
G1 X119.246 Y99.186 E7.66977
G1 X121.754 Y99.352 E7.75337
G1 X124.922 Y99.463 E7.8588
G1 X137.832 Y99.697 E8.28826
G1 X140.226 Y99.705 E8.36788
G1 X140.606 Y99.711 E8.38053
G1 X141.317 Y99.747 E8.4042
G1 X141.589 Y99.77 E8.41328
G1 X142.068 Y99.821 E8.4293
G1 X142.497 Y99.877 E8.44369
G1 X143.757 Y100.12 E8.48637
G1 X143.956 Y100.171 E8.49321
G1 X144.37 Y100.286 E8.5075
G1 X144.8 Y100.415 E8.52243
G1 X145.995 Y100.853 E8.56476
G1 X146.192 Y100.939 E8.57191
G1 X146.617 Y101.136 E8.58749
G1 X147.025 Y101.336 E8.6026
G1 X148.196 Y102.006 E8.64748
G1 X148.434 Y102.163 E8.65696
G1 X148.789 Y102.408 E8.6713
G1 X149.103 Y102.634 E8.68417
G1 X150.132 Y103.477 E8.72842
G1 X150.305 Y103.638 E8.73628
G1 X150.591 Y103.915 E8.74952
G1 X150.9 Y104.225 E8.76408
G1 X151.521 Y104.904 E8.79468
G1 X151.817 Y105.273 E8.81041
G1 X151.982 Y105.489 E8.81945
G1 X152.191 Y105.773 E8.83118
G1 X152.414 Y106.086 E8.84397
G1 X153.096 Y107.178 E8.88679
G1 X153.203 Y107.375 E8.89424
G1 X153.415 Y107.788 E8.90968
G1 X153.613 Y108.194 E8.92471
G1 X153.979 Y109.035 E8.95521
G1 X153.999 Y109.087 E8.95707
G1 X154.2 Y109.657 E8.97717
G1 X154.275 Y109.891 E8.98534
G1 X154.349 Y110.132 E8.99373
G1 X154.455 Y110.492 E9.00621
G1 X154.677 Y111.386 E9.03685
G1 X154.766 Y111.888 E9.0538
G1 X154.825 Y112.275 E9.06682
G1 X154.874 Y112.641 E9.07911
G1 X154.896 Y112.829 E9.0854
G1 X154.968 Y114.13 E9.12874
G1 X154.964 Y114.742 E9.14909
G1 X154.955 Y115.113 E9.16144
G1 X154.885 Y116.031 E9.19206
G1 X154.796 Y116.625 E9.21204
G1 X154.704 Y117.141 E9.22947
G1 X154.63 Y117.519 E9.24228
G1 X154.587 Y117.718 E9.24905
G1 X154.234 Y118.972 E9.29238
G1 X154.16 Y119.184 E9.29985
G1 X154.019 Y119.565 E9.31336
G1 X153.858 Y119.975 E9.32801
G1 X153.326 Y121.124 E9.37012
G1 X153.22 Y121.321 E9.37757
G1 X152.972 Y121.755 E9.39419
G1 X152.751 Y122.123 E9.40847
G1 X152.29 Y122.827 E9.43646
G1 X152.255 Y122.876 E9.43846
G1 X151.931 Y123.305 E9.45634
G1 X151.804 Y123.465 E9.46313
G1 X151.559 Y123.763 E9.47597
G1 X151.282 Y124.087 E9.49014
G1 X150.36 Y125.038 E9.5342
G1 X150.204 Y125.18 E9.54122
G1 X149.911 Y125.437 E9.55418
G1 X149.569 Y125.726 E9.56907
G1 X148.501 Y126.519 E9.61331
G1 X148.287 Y126.658 E9.6218
G1 X147.914 Y126.89 E9.63641
G1 X147.556 Y127.102 E9.65025
G1 X146.331 Y127.724 E9.69594
G1 X146.072 Y127.835 E9.70532
G1 X145.721 Y127.978 E9.71792
G1 X145.354 Y128.12 E9.73101
G1 X144.5 Y128.409 E9.761
G1 X143.325 Y128.752 E9.80171
G1 X141.724 Y129.202 E9.85702
G1 X129.487 Y132.872 E10.28194
G1 X126.972 Y133.665 E10.36965
G1 X124.602 Y134.487 E10.45308
G1 X122.239 Y135.382 E10.53712
G1 X119.885 Y136.35 E10.62178
G1 X117.574 Y137.379 E10.70592
G1 X115.301 Y138.468 E10.78974
G1 X113.7 Y139.291 E10.84962
G1 X113.593 Y139.34 E10.85353
G1 X112.787 Y139.757 E10.88371
G1 X112.107 Y140.096 E10.90899
G1 X111.404 Y140.415 E10.93466
G1 X111.309 Y140.454 E10.93808
G1 X110.936 Y140.599 E10.95139
G1 X110.096 Y140.905 E10.98112
G1 X109.89 Y140.977 E10.98838
G1 X109.246 Y141.195 E11.011
G1 X108.44 Y141.433 E11.03895
G1 X108.329 Y141.461 E11.04275
G1 X108.014 Y141.535 E11.05352
G1 X107.414 Y141.667 E11.07395
G1 X107.146 Y141.716 E11.08301
G1 X107.147 Y141.72 E11.08315
G1 X106.283 Y141.891 E11.11244
G1 X105.096 Y142.057 E11.15231
G1 X104.356 Y142.118 E11.177
G1 X104.155 Y142.133 E11.18371
G1 X103.908 Y142.148 E11.19194
G1 X103.161 Y142.189 E11.21682
G1 X102.251 Y142.2 E11.24709
G1 X102.122 Y142.196 E11.25138
G1 X101.853 Y142.184 E11.26034
G1 X101.264 Y142.15 E11.27996
G1 X100.781 Y142.116 E11.29606
G1 X100.045 Y142.054 E11.32063
G1 X99.206 Y141.949 E11.34875
G1 X99.079 Y141.928 E11.35303
G1 X98.781 Y141.874 E11.36311
G1 X98.146 Y141.749 E11.38463
G1 X97.886 Y141.693 E11.39348
G1 X96.953 Y141.483 E11.42529
G1 X96.103 Y141.254 E11.45457
G1 X95.963 Y141.21 E11.45945
G1 X95.681 Y141.117 E11.46932
G1 X95.322 Y140.993 E11.48196
G1 X94.76 Y140.793 E11.5018
G1 X94.095 Y140.546 E11.52539
G1 X93.226 Y140.178 E11.55678
G1 X92.899 Y140.02 E11.56886
G1 X92.368 Y139.752 E11.58864
G1 X91.956 Y139.537 E11.6041
G1 X91.318 Y139.196 E11.62816
G1 X90.511 Y138.718 E11.65935
G1 X90.43 Y138.665 E11.66257
G1 X90.217 Y138.521 E11.67113
G1 X89.714 Y138.174 E11.69145
G1 X89.304 Y137.883 E11.70817
G1 X88.772 Y137.497 E11.73003
G1 X88.153 Y137.012 E11.75619
G1 X88.043 Y136.919 E11.76098
G1 X87.734 Y136.647 E11.77467
G1 X87.314 Y136.262 E11.79362
G1 X87.091 Y136.055 E11.80374
G1 X86.961 Y135.932 E11.80969
G1 X86.434 Y135.426 E11.83399
G1 X85.803 Y134.766 E11.86436
G1 X85.555 Y134.479 E11.87698
G1 X85.178 Y134.026 E11.89658
G1 X84.847 Y133.616 E11.91411
G1 X84.424 Y133.081 E11.93679
G1 X83.919 Y132.387 E11.96534
G1 X83.831 Y132.255 E11.97062
G1 X83.656 Y131.984 E11.98134
G1 X83.378 Y131.537 E11.99885
G1 X83.19 Y131.228 E12.01088
G1 X82.74 Y130.464 E12.04037
G1 X82.343 Y129.723 E12.06833
G1 X82.292 Y129.618 E12.07222
G1 X82.157 Y129.33 E12.0828
G1 X81.976 Y128.927 E12.09749
G1 X81.701 Y128.29 E12.12057
G1 X81.437 Y127.658 E12.14335
G1 X81.047 Y126.557 E12.1822
G1 X80.825 Y125.798 E12.2085
G1 X80.725 Y125.434 E12.22105
G1 X80.538 Y124.731 E12.24525
G1 X80.346 Y123.864 E12.27478
G1 X80.287 Y123.508 E12.28679
G1 X80.172 Y122.74 E12.31261
G1 X80.122 Y122.362 E12.3253
G1 X80.036 Y121.661 E12.34879
G1 X79.964 Y120.759 E12.37888
G1 X79.959 Y120.623 E12.38341
G1 X79.953 Y120.363 E12.39206
G1 X79.947 Y119.823 E12.41002
G1 X79.948 Y119.282 E12.42801
G1 X79.958 Y118.584 E12.45123
G1 X80.001 Y117.776 E12.47814
G1 X80.011 Y117.666 E12.48182
G1 X80.049 Y117.311 E12.49369
G1 X80.127 Y116.691 E12.51448
G1 X80.206 Y116.124 E12.53352
G1 X80.299 Y115.512 E12.55411
G1 X80.469 Y114.644 E12.58352
G1 X80.506 Y114.489 E12.58882
G1 X80.58 Y114.194 E12.59894
G1 X80.722 Y113.671 E12.61696
G1 X80.822 Y113.317 E12.6292
G1 X81.063 Y112.499 E12.65756
G1 X81.374 Y111.596 E12.68933
G1 X81.518 Y111.239 E12.70213
G1 X81.71 Y110.787 E12.71846
G1 X81.953 Y110.23 E12.73868
G1 X82.223 Y109.633 E12.76047
G1 X82.645 Y108.799 E12.79156
G1 X82.81 Y108.512 E12.80257
G1 X83.124 Y107.984 E12.823
G1 X83.399 Y107.534 E12.84054
G1 X83.738 Y106.993 E12.86178
G1 X84.213 Y106.297 E12.8898
G1 X84.297 Y106.184 E12.89448
G1 X84.497 Y105.923 E12.90542
G1 X84.822 Y105.513 E12.92282
G1 X85.173 Y105.083 E12.94128
G1 X85.651 Y104.512 E12.96605
G1 X86.284 Y103.821 E12.99722
G1 X86.515 Y103.593 E13.00802
G1 X86.945 Y103.182 E13.0278
G1 X87.323 Y102.83 E13.04498
G1 X87.846 Y102.355 E13.06848
G0 F6000 X88.115 Y102.651
G1 F1200 X88.727 Y102.138 E13.09504
G1 X88.829 Y102.059 E13.09933
G1 X89.096 Y101.859 E13.11042
G1 X89.593 Y101.501 E13.1308
